X: 14642
T: Gan Ainm
R: jig
M: 6/8
K: Gmajor
|:g|edB BAG|EDE G2A|BAB d2d|edB A2g|
edB BAG|EDE G2A|BAB d2d|edB G2:|
|:e|g2e edB|BAB d2d|egg ged|eaa aba|
g2e edB|BAB d2d|gfe aga|bgg g2:|

